X:517
T:The Music Will Tell You (Old version)
%%MIDI gchord GIgIHI
%%MIDI beat 100 95 80
C:Colin Hume, 2006
S:Colin Hume's website,  colinhume.com  - chords can also be printed below the stave.
M:3/2
L:1/8
Q:1/2=75
%%MIDI chordname dim 0 3 6 9
K:D
%%center Switch smoothly from one tune to the other and back again at the caller's request.
P:A
|: "D"F2EF "/"A2d2 "Bm"FED2 | "G"B,2A,B, "/"D2F2 "A"E4 |\
"D"F2EF "A/C#"A2c2 "Bm"d2c2 | "G"B2AB "D/F#"A2 D2 "Em"G4 |
"A7"F2GA "F#7/A#"F2E2 "Bm"E2D2 | "G"B2cd "G/F#"B2A2 "Em"A2G2 |\
"A"c2de "F#7/A#"d2c2 "Bm"c2B2 |1 "G"A2 G2 "Em"B,2D2 "A"E4 :|2 "G"A2G2 "Em"B,2D2 "D"D4 |]
P:B
|: "F#m"c2A2- "/"A2AB "/"c2d2 | "Am"=c2A2- "/"A2E2 "/"AGFE |\
"C"G2E2 "Am"A2E2 "Em"B2E2 | "C"=cBAG "Am"A3B "D"A4 |
"F#m"c2A2- "/"A2AB "/"c2d2 | "A"e2c2- "/"c2cd "/"e2f2 |\
"Gdim"g2e2 "/A#"c2e2 "/C#"g2e2 | "Bm"f2 ed "F#7"c3B "Bm"B4 :|
%%text When switching tunes, gradually speed up and replace the last bar by the following:
"Bm"fd BF "A7"EC |
Q:3/8=108
K:Dm
M:6/8
P:A
|: "Dm"DEG BAG | "/"A2F EFD | "/"B2F EFD | "/"A2F EFD | "C"EDE GEC | "/"G2 "/"E2 "/"C2 |
| "Dm"DEG BAG | "/"AGA d2e | "Bb"fed def | "F"cBA AGF | "C"EDE GEC | "Dm"E2D-D3 :|
P:B
|: "Bb"dcd fed | "C"d2 c-c2B | "F"AGA cAG | "Dm"FGA D2E | "Bb"FEF "C"GFG | "F"AFG ABc |
| "Dm"d2d- dcd | "Bb"f2f- fef | "C"g2g- gfg | "Dm"agf edc | "Bb"dcB AGF | "C"EFE "Dm"D3 :|
K:D
%%text When switching tunes, gradually slow down and replace the last bar by the following:
| "A7"E2 D2 E2 |

